X:1
T:Title
%%score { 1 | 2 }
L:1/8
Q:1/4=106
M:4/4
K:Ab
V:1 treble nm="Grand Piano"
V:2 treble 
V:1
 e3 e eecd | e4 c4 | c3 c cB[EA]B | c6 z2 | [FA]3 [FA] [FA][FB][FA][A,DF] | [A,CE]4 [CEA]4 | %6
w: C.~E.~Hunter * * * * *||||||
 [EAc]3 [DGB] AABc | [GB]6 z2 | e3 e eecd | e4 c4 | c3 c cB[EA]B | c6 z2 | %12
w: ||||||
 [FA]3 [FA] [FA][FB][FA][A,DF] | [A,CE]4 [CEA]4 | [EAc]3 [FAd] [EAc][DEB][CEA][B,EG] | [CEA]6 z2 |] %16
w: ||||
V:2
 [A,CA]3 [A,CA] [A,CA][A,CA][A,A][A,B,A] | [A,CA]4 [A,EA]4 | %2
 [A,E]3 [A,E] [A,E][E,G,E][C,A,][E,G,E] | [A,E]6 z2 | [D,D]3 [D,D] [D,D][D,D][D,D]D, | A,,4 A,,4 | %6
 A,3 E, [F,CF][F,CF][G,B,E][A,E] | [E,E]6 z2 | [A,CA]3 [A,CA] [A,CA][A,CA][A,A][A,B,A] | %9
 [A,CA]4 [A,EA]4 | [A,E]3 [A,E] [A,E][E,G,E][C,A,][E,G,E] | [A,E]6 z2 | %12
 [D,D]3 [D,D] [D,D][D,D][D,D]D, | A,,4 A,,4 | E,3 E, E,E,E,E, | A,,6 z2 |] %16

